X:245
T:Katy is Waiting
M:6/8
L:1/8
K:EDor
BEE  cEE|BAF BAF|D2 D FDF|A2 B AFD|\
BEE cEE|BAF BAF|ABc dBF|FED E3 :|
|: ~e2 e efg|fed e2 A|ABc d2 d|ABc dAF|\
~e2 e efg|fed edB| dcd BAF|BAF E3 :|
